src/assets/IconRulingActive.svg

<svg width="557" height="557" fill="none" xmlns="http://www.w3.org/2000/svg"><path fill-rule="evenodd" clip-rule="evenodd" d="M278.5 557C432.311 557 557 432.311 557 278.5S432.311 0 278.5 0 0 124.689 0 278.5 124.689 557 278.5 557z" fill="url(#paint0_linear)"/><path opacity=".7" fill-rule="evenodd" clip-rule="evenodd" d="M161.597 398.686c5.976 6.882 10.145 14.865 12.152 23.179 1.101 4.6-1.179 9.214-5.242 11.264l.015.03c-24.255 12.282-55.694 4.387-73.505-16.122-5.977-6.882-10.146-14.864-12.152-23.179-1.1-4.6 1.179-9.214 5.242-11.264 24.371-12.604 55.974-4.077 73.49 16.092zm117.383-83.407c.015 15.596.036 34.785 0 0zM158.69 124.855c13.136 23.533 6.835 54.645-12.298 73.256-6.567 6.388-14.288 11.013-22.422 13.478-4.866 1.474-9.978-.922-12.052-5.421-4.026-7.211-6.392-15.557-6.854-24.325-1.419-26.982 15.541-54.522 41.572-62.409 4.867-1.474 9.98.922 12.054 5.421zm-13.644 25a37.682 37.682 0 00-1.176-7.599c-14.721 9.227-22.467 28.88-18.067 45.581 12.535-7.856 20.022-23.333 19.243-37.982zm-59.305 45.761c-4.263-2.367-9.74-1.367-12.851 2.573-16.87 21.375-14.968 53.529 1.718 74.726 5.465 6.943 12.26 12.419 19.757 15.981 4.263 2.366 9.74 1.367 12.851-2.574 22.48-28.481 11.322-75.127-21.475-90.706zm3.403 28.45c9.257 11.538 12.082 28.347 6.319 41.911-13.46-11.125-18.515-31.526-11.753-47.442a38.11 38.11 0 015.434 5.531zM60.49 289.238c-4.762-.16-9.12 3.063-10.203 7.866-6.008 26.617 9.668 55.045 33.92 67.08 8.025 3.983 16.668 6.022 25.137 5.973 4.762.161 9.119-3.063 10.203-7.866 8.016-35.511-22.29-73.265-59.057-73.053zm16.224 24.141c13.178 6.605 22.848 20.623 23.603 35.388-16.703-4.483-29.9-20.781-30.79-38.139a38.146 38.146 0 017.188 2.751zm36.953 82.831a37.473 37.473 0 00-7.752.756c8.468 15.297 27.758 24.323 44.785 20.814-7.216-13.036-22.276-21.49-37.033-21.57z" fill="url(#paint1_linear)"/><path opacity=".7" fill-rule="evenodd" clip-rule="evenodd" d="M396.403 398.686c-5.976 6.882-10.145 14.865-12.152 23.179-1.101 4.6 1.179 9.214 5.242 11.264l-.015.03c24.255 12.282 55.694 4.387 73.505-16.122 5.977-6.882 10.146-14.864 12.152-23.179 1.101-4.6-1.179-9.214-5.242-11.264-24.371-12.604-55.974-4.077-73.49 16.092zM279.02 315.279c-.015 15.596-.036 34.785 0 0zm120.29-190.424c-13.136 23.533-6.835 54.645 12.298 73.256 6.567 6.388 14.288 11.013 22.422 13.478 4.866 1.474 9.978-.922 12.052-5.421 4.026-7.211 6.392-15.557 6.854-24.325 1.419-26.982-15.541-54.522-41.572-62.409-4.867-1.474-9.98.922-12.054 5.421zm13.644 25c.14-2.628.537-5.175 1.176-7.599 14.721 9.227 22.467 28.88 18.067 45.581-12.535-7.856-20.022-23.333-19.243-37.982zm59.305 45.761c4.263-2.367 9.74-1.367 12.851 2.573 16.87 21.375 14.968 53.529-1.718 74.726-5.465 6.943-12.259 12.419-19.757 15.981-4.263 2.366-9.74 1.367-12.851-2.574-22.48-28.481-11.322-75.127 21.475-90.706zm-3.403 28.45c-9.257 11.538-12.082 28.347-6.318 41.911 13.458-11.125 18.514-31.526 11.752-47.442a38.103 38.103 0 00-5.434 5.531zm28.655 65.172c4.763-.16 9.119 3.063 10.203 7.866 6.009 26.617-9.668 55.045-33.919 67.08-8.026 3.983-16.669 6.022-25.138 5.973-4.762.161-9.119-3.063-10.203-7.866-8.016-35.511 22.29-73.265 59.057-73.053zm-16.224 24.141c-13.178 6.605-22.848 20.623-23.603 35.388 16.703-4.483 29.901-20.781 30.79-38.139a38.11 38.11 0 00-7.187 2.751zm-36.953 82.831a37.473 37.473 0 017.752.756c-8.468 15.297-27.758 24.323-44.785 20.814 7.216-13.036 22.276-21.49 37.033-21.57z" fill="url(#paint2_linear)"/><path opacity=".668" d="M278.371 207.956H155.743v141.6h122.628v-141.6z" fill="url(#paint3_linear)"/><path opacity=".668" d="M401.001 207.956H278.373v141.6h122.628v-141.6z" fill="url(#paint4_linear)"/><path d="M278.371 278.753l-22.125 70.801 22.125 70.801 122.628-70.801-122.628-70.801z" fill="url(#paint5_linear)"/><path d="M155.743 349.554l122.628 70.801V278.753l-122.628 70.801z" fill="url(#paint6_linear)"/><path d="M278.371 137.156l-22.125 70.801 22.125 70.801 122.628-70.801-122.628-70.801z" fill="url(#paint7_linear)"/><path d="M155.743 207.957l122.628 70.801V137.156l-122.628 70.801z" fill="url(#paint8_linear)"/><defs><linearGradient id="paint0_linear" x1="861.609" y1="-250.65" x2="-22.058" y2="418.733" gradientUnits="userSpaceOnUse"><stop stop-color="#FFB36D"/><stop offset="1" stop-color="#F88"/></linearGradient><linearGradient id="paint1_linear" x1="103.944" y1="72.594" x2="371.396" y2="216.274" gradientUnits="userSpaceOnUse"><stop stop-color="#FFECDB"/><stop offset="1" stop-color="#FF9898"/></linearGradient><linearGradient id="paint2_linear" x1="454.056" y1="72.594" x2="186.604" y2="216.274" gradientUnits="userSpaceOnUse"><stop stop-color="#FFECDB"/><stop offset="1" stop-color="#FF9898"/></linearGradient><linearGradient id="paint3_linear" x1="317.364" y1="314.156" x2="244.845" y2="234.276" gradientUnits="userSpaceOnUse"><stop stop-color="#FFE6DC"/><stop offset="1" stop-color="#FFDBCE"/></linearGradient><linearGradient id="paint4_linear" x1="439.994" y1="314.156" x2="367.475" y2="234.276" gradientUnits="userSpaceOnUse"><stop stop-color="#FFE6DC"/><stop offset="1" stop-color="#FFDBCE"/></linearGradient><linearGradient id="paint5_linear" x1="336.611" y1="396.994" x2="385.198" y2="276.912" gradientUnits="userSpaceOnUse"><stop stop-color="#FFC9B4"/><stop offset="1" stop-color="#FFA48E"/></linearGradient><linearGradient id="paint6_linear" x1="223.825" y1="396.994" x2="278.17" y2="283.209" gradientUnits="userSpaceOnUse"><stop stop-color="#FFC9B4"/><stop offset="1" stop-color="#FFA48E"/></linearGradient><linearGradient id="paint7_linear" x1="447.027" y1="243.358" x2="376.609" y2="151.798" gradientUnits="userSpaceOnUse"><stop stop-color="#FFCEBB"/><stop offset="1" stop-color="#FFE6DD"/></linearGradient><linearGradient id="paint8_linear" x1="317.364" y1="243.358" x2="244.844" y2="163.478" gradientUnits="userSpaceOnUse"><stop stop-color="#FFCEBB"/><stop offset="1" stop-color="#FFF2ED"/></linearGradient></defs></svg>

<svg width="557" height="557" viewBox="0 0 557 557" fill="none" xmlns="http://www.w3.org/2000/svg">
<path fill-rule="evenodd" clip-rule="evenodd" d="M278.5 557C432.311 557 557 432.311 557 278.5C557 124.689 432.311 0 278.5 0C124.689 0 0 124.689 0 278.5C0 432.311 124.689 557 278.5 557Z" fill="url(#paint0_linear)"/>
<path opacity="0.7" fill-rule="evenodd" clip-rule="evenodd" d="M161.597 398.686C167.573 405.568 171.742 413.551 173.749 421.865C174.85 426.465 172.57 431.079 168.507 433.129L168.522 433.159C144.267 445.441 112.828 437.546 95.0169 417.037C89.0403 410.155 84.8714 402.173 82.865 393.858C81.7642 389.258 84.0436 384.644 88.107 382.594C112.478 369.99 144.081 378.517 161.597 398.686ZM278.98 315.279C278.995 330.875 279.016 350.064 278.98 315.279V315.279ZM158.69 124.855C171.826 148.388 165.525 179.5 146.392 198.111C139.825 204.499 132.104 209.124 123.97 211.589C119.104 213.063 113.992 210.667 111.918 206.168C107.892 198.957 105.526 190.611 105.064 181.843C103.645 154.861 120.605 127.321 146.636 119.434C151.503 117.96 156.616 120.356 158.69 124.855ZM145.046 149.855C144.906 147.227 144.509 144.68 143.87 142.256C129.149 151.483 121.403 171.136 125.803 187.837C138.338 179.981 145.825 164.504 145.046 149.855ZM85.7406 195.616C81.4781 193.249 76.0013 194.249 72.8897 198.189C56.0204 219.564 57.9224 251.718 74.6084 272.915C80.073 279.858 86.8673 285.334 94.3654 288.896C98.6279 291.262 104.105 290.263 107.216 286.322C129.696 257.841 118.538 211.195 85.7406 195.616ZM89.1444 224.066C98.4007 235.604 101.226 252.413 95.4625 265.977C82.0039 254.852 76.9478 234.451 83.7102 218.535C85.6642 220.15 87.4893 222.003 89.1444 224.066ZM60.4891 289.238C55.7265 289.078 51.3698 292.301 50.2858 297.104C44.2775 323.721 59.9539 352.149 84.2051 364.184C92.2311 368.167 100.874 370.206 109.343 370.157C114.105 370.318 118.462 367.094 119.546 362.291C127.562 326.78 97.2563 289.026 60.4891 289.238ZM76.7135 313.379C89.8912 319.984 99.5607 334.002 100.316 348.767C83.6131 344.284 70.4154 327.986 69.5265 310.628C71.9437 311.277 74.3549 312.197 76.7135 313.379ZM113.666 396.21C111.01 396.196 108.41 396.452 105.914 396.966C114.382 412.263 133.672 421.289 150.699 417.78C143.483 404.744 128.423 396.29 113.666 396.21Z" fill="url(#paint1_linear)"/>
<path opacity="0.7" fill-rule="evenodd" clip-rule="evenodd" d="M396.403 398.686C390.427 405.568 386.258 413.551 384.251 421.865C383.15 426.465 385.43 431.079 389.493 433.129L389.478 433.159C413.733 445.441 445.172 437.546 462.983 417.037C468.96 410.155 473.129 402.173 475.135 393.858C476.236 389.258 473.956 384.644 469.893 382.594C445.522 369.99 413.919 378.517 396.403 398.686ZM279.02 315.279C279.005 330.875 278.984 350.064 279.02 315.279V315.279ZM399.31 124.855C386.174 148.388 392.475 179.5 411.608 198.111C418.175 204.499 425.896 209.124 434.03 211.589C438.896 213.063 444.008 210.667 446.082 206.168C450.108 198.957 452.474 190.611 452.936 181.843C454.355 154.861 437.395 127.321 411.364 119.434C406.497 117.96 401.384 120.356 399.31 124.855ZM412.954 149.855C413.094 147.227 413.491 144.68 414.13 142.256C428.851 151.483 436.597 171.136 432.197 187.837C419.662 179.981 412.175 164.504 412.954 149.855ZM472.259 195.616C476.522 193.249 481.999 194.249 485.11 198.189C501.98 219.564 500.078 251.718 483.392 272.915C477.927 279.858 471.133 285.334 463.635 288.896C459.372 291.262 453.895 290.263 450.784 286.322C428.304 257.841 439.462 211.195 472.259 195.616ZM468.856 224.066C459.599 235.604 456.774 252.413 462.538 265.977C475.996 254.852 481.052 234.451 474.29 218.535C472.336 220.15 470.511 222.003 468.856 224.066ZM497.511 289.238C502.274 289.078 506.63 292.301 507.714 297.104C513.723 323.721 498.046 352.149 473.795 364.184C465.769 368.167 457.126 370.206 448.657 370.157C443.895 370.318 439.538 367.094 438.454 362.291C430.438 326.78 460.744 289.026 497.511 289.238ZM481.287 313.379C468.109 319.984 458.439 334.002 457.684 348.767C474.387 344.284 487.585 327.986 488.474 310.628C486.056 311.277 483.645 312.197 481.287 313.379ZM444.334 396.21C446.99 396.196 449.59 396.452 452.086 396.966C443.618 412.263 424.328 421.289 407.301 417.78C414.517 404.744 429.577 396.29 444.334 396.21Z" fill="url(#paint2_linear)"/>
<path opacity="0.668271" d="M278.371 207.956H155.743V349.556H278.371V207.956Z" fill="url(#paint3_linear)"/>
<path opacity="0.668271" d="M401.001 207.956H278.373V349.556H401.001V207.956Z" fill="url(#paint4_linear)"/>
<path d="M278.371 278.753L256.246 349.554L278.371 420.355L400.999 349.554L278.371 278.753Z" fill="url(#paint5_linear)"/>
<path d="M155.743 349.554L278.371 420.355V278.753L155.743 349.554Z" fill="url(#paint6_linear)"/>
<path d="M278.371 137.156L256.246 207.957L278.371 278.758L400.999 207.957L278.371 137.156Z" fill="url(#paint7_linear)"/>
<path d="M155.743 207.957L278.371 278.758V137.156L155.743 207.957Z" fill="url(#paint8_linear)"/>
<defs>
<linearGradient id="paint0_linear" x1="861.609" y1="-250.65" x2="-22.0584" y2="418.733" gradientUnits="userSpaceOnUse">
<stop stop-color="#FFB36D"/>
<stop offset="1" stop-color="#FF8888"/>
</linearGradient>
<linearGradient id="paint1_linear" x1="103.944" y1="72.5936" x2="371.396" y2="216.274" gradientUnits="userSpaceOnUse">
<stop stop-color="#FFECDB"/>
<stop offset="1" stop-color="#FF9898"/>
</linearGradient>
<linearGradient id="paint2_linear" x1="454.056" y1="72.5936" x2="186.604" y2="216.274" gradientUnits="userSpaceOnUse">
<stop stop-color="#FFECDB"/>
<stop offset="1" stop-color="#FF9898"/>
</linearGradient>
<linearGradient id="paint3_linear" x1="317.364" y1="314.156" x2="244.845" y2="234.276" gradientUnits="userSpaceOnUse">
<stop stop-color="#FFE6DC"/>
<stop offset="1" stop-color="#FFDBCE"/>
</linearGradient>
<linearGradient id="paint4_linear" x1="439.994" y1="314.156" x2="367.475" y2="234.276" gradientUnits="userSpaceOnUse">
<stop stop-color="#FFE6DC"/>
<stop offset="1" stop-color="#FFDBCE"/>
</linearGradient>
<linearGradient id="paint5_linear" x1="336.611" y1="396.994" x2="385.198" y2="276.912" gradientUnits="userSpaceOnUse">
<stop stop-color="#FFC9B4"/>
<stop offset="1" stop-color="#FFA48E"/>
</linearGradient>
<linearGradient id="paint6_linear" x1="223.825" y1="396.994" x2="278.17" y2="283.209" gradientUnits="userSpaceOnUse">
<stop stop-color="#FFC9B4"/>
<stop offset="1" stop-color="#FFA48E"/>
</linearGradient>
<linearGradient id="paint7_linear" x1="447.027" y1="243.358" x2="376.609" y2="151.798" gradientUnits="userSpaceOnUse">
<stop stop-color="#FFCEBB"/>
<stop offset="1" stop-color="#FFE6DD"/>
</linearGradient>
<linearGradient id="paint8_linear" x1="317.364" y1="243.358" x2="244.844" y2="163.478" gradientUnits="userSpaceOnUse">
<stop stop-color="#FFCEBB"/>
<stop offset="1" stop-color="#FFF2ED"/>
</linearGradient>
</defs>
</svg>
